dist/img/case-medical-cloud-04.svg

<svg viewBox="0 0 1160 652" xmlns="http://www.w3.org/2000/svg"><path d="m225 118h230v40h-230z" fill="#f4b300" opacity=".2"/><path d="m1158 2v648h-1156v-648zm2-2h-1160v652h1160z" fill="#d3d4d6"/><path d="m1158 2v56h-1156v-56zm2-2h-1160v60h1160z" fill="#d3d4d6"/><circle cx="44" cy="30" fill="#db4437" r="10"/><circle cx="84" cy="30" fill="#f4b300" r="10"/><circle cx="124" cy="30" fill="#0e9d58" r="10"/><text fill="#252733" font-family="OpenSans-Regular, Open Sans" font-size="24" transform="translate(80 146.57)">&lt;script type=”application/ld+json”&gt;<tspan x="0" y="28.8">{</tspan><tspan letter-spacing="1.24em" x="0" xml:space="preserve" y="57.6"></tspan><tspan x="72" y="57.6">“@context”: “https://schema.org”,</tspan><tspan letter-spacing="1.24em" x="0" xml:space="preserve" y="86.4"></tspan><tspan x="72" y="86.4">“@graph”: [</tspan><tspan letter-spacing="1.24em" x="0" xml:space="preserve" y="115.2"></tspan><tspan x="144" y="115.2">{</tspan><tspan letter-spacing="1.24em" x="0" xml:space="preserve" y="144"></tspan><tspan x="216" y="144">...</tspan><tspan letter-spacing="1.24em" x="0" xml:space="preserve" y="172.8"></tspan><tspan x="216" y="172.8">“@type”: “MedicalWebPage”,</tspan><tspan letter-spacing="1.24em" x="0" xml:space="preserve" y="201.6"></tspan><tspan x="216" y="201.6">...</tspan><tspan letter-spacing="1.24em" x="0" xml:space="preserve" y="230.4"></tspan><tspan x="216" y="230.4">“isAccssibleForFee”: </tspan><tspan fill="#db4437" x="440.19" y="230.4">false</tspan><tspan x="492.66" y="230.4">,</tspan><tspan letter-spacing="1.24em" x="0" xml:space="preserve" y="259.2"></tspan><tspan x="216" y="259.2">“hasPart”: {</tspan><tspan letter-spacing="1.24em" x="0" xml:space="preserve" y="288"></tspan><tspan x="288" y="288">“@type”: “WebPageElement”,</tspan><tspan letter-spacing="1.24em" x="0" xml:space="preserve" y="316.8"></tspan><tspan x="288" y="316.8">...</tspan><tspan letter-spacing="1.24em" x="0" xml:space="preserve" y="345.6"></tspan><tspan x="144" y="345.6">}</tspan><tspan letter-spacing="1.24em" x="0" xml:space="preserve" y="374.4"></tspan><tspan x="72" y="374.4">]</tspan><tspan x="0" y="403.2">}</tspan><tspan x="0" y="432">&lt;/script&gt;</tspan></text><path d="m394 292h212v40h-212z" fill="#f4b300" opacity=".2"/></svg>

<svg xmlns="http://www.w3.org/2000/svg" viewBox="0 0 1160 652"><defs><style>.cls-1{opacity:0.2;}.cls-2{fill:#f4b300;}.cls-3{fill:#d3d4d6;}.cls-4{fill:#db4437;}.cls-5{fill:#0e9d58;}.cls-6{font-size:24px;fill:#252733;font-family:OpenSans-Regular, Open Sans;}.cls-7{letter-spacing:1.24em;}</style></defs><g id="Layer_2" data-name="Layer 2"><g id="snippet"><g class="cls-1"><rect class="cls-2" x="225" y="118" width="230" height="40"/></g><path class="cls-3" d="M1158,2V650H2V2H1158m2-2H0V652H1160V0Z"/><path class="cls-3" d="M1158,2V58H2V2H1158m2-2H0V60H1160V0Z"/><circle class="cls-4" cx="44" cy="30" r="10"/><circle class="cls-2" cx="84" cy="30" r="10"/><circle class="cls-5" cx="124" cy="30" r="10"/><text class="cls-6" transform="translate(80 146.57)">&lt;script type=”application/ld+json”&gt;<tspan x="0" y="28.8">{</tspan><tspan class="cls-7" x="0" y="57.6" xml:space="preserve">		</tspan><tspan x="72" y="57.6">“@context”: “https://schema.org”,</tspan><tspan class="cls-7" x="0" y="86.4" xml:space="preserve">		</tspan><tspan x="72" y="86.4">“@graph”: [</tspan><tspan class="cls-7" x="0" y="115.2" xml:space="preserve">				</tspan><tspan x="144" y="115.2">{</tspan><tspan class="cls-7" x="0" y="144" xml:space="preserve">						</tspan><tspan x="216" y="144">...</tspan><tspan class="cls-7" x="0" y="172.8" xml:space="preserve">						</tspan><tspan x="216" y="172.8">“@type”: “MedicalWebPage”,</tspan><tspan class="cls-7" x="0" y="201.6" xml:space="preserve">						</tspan><tspan x="216" y="201.6">...</tspan><tspan class="cls-7" x="0" y="230.4" xml:space="preserve">						</tspan><tspan x="216" y="230.4">“isAccssibleForFee”: </tspan><tspan class="cls-4" x="440.19" y="230.4">false</tspan><tspan x="492.66" y="230.4">,</tspan><tspan class="cls-7" x="0" y="259.2" xml:space="preserve">						</tspan><tspan x="216" y="259.2">“hasPart”: {</tspan><tspan class="cls-7" x="0" y="288" xml:space="preserve">								</tspan><tspan x="288" y="288">“@type”: “WebPageElement”,</tspan><tspan class="cls-7" x="0" y="316.8" xml:space="preserve">								</tspan><tspan x="288" y="316.8">...</tspan><tspan class="cls-7" x="0" y="345.6" xml:space="preserve">				</tspan><tspan x="144" y="345.6">}</tspan><tspan class="cls-7" x="0" y="374.4" xml:space="preserve">		</tspan><tspan x="72" y="374.4">]</tspan><tspan x="0" y="403.2">}</tspan><tspan x="0" y="432">&lt;/script&gt;</tspan></text><g class="cls-1"><rect class="cls-2" x="394" y="292" width="212" height="40"/></g></g></g></svg>
